X:4403
T:Moving Cloud, The
O:england
C:Nellie Boyle
R:reel
H:Also played in F
D:Matt Molloy: Heathery Breeze.
M:C|
K:G
DGAG EGBG|DGBG AGEG|cEGc Bdgb|aged cEGE|
D3G ~E3G|DGBG AGEG|cEGc BDGB|AGAB G4:|
|:d2bd adgd|d2bd adgd|e2c'e beae|e2c'e beae|
d2bd adgd|d2bd adgd|c'bac' bage|dBAB G4:|
|:Bd~d2 edBA|Bd~d2 edBd|ce~e2 fe~e2|gefd edBA|
Bd~d2 edBA|Bd~d2 edBd|cABG AFGF|EDEF G4:|


